src/Assets/right-arrow.svg

<svg height="19" viewBox="0 0 35 19" width="35" xmlns="http://www.w3.org/2000/svg"><path d="m1191.63208 10.59196-8.03467-8.216382c-.49019-.500894-1.28524-.500894-1.77551 0-.49027.501446-.49027 1.314611 0 1.815758l5.89157 6.024758h-29.45802c-.69335 0-1.25545.575046-1.25545 1.283745 0 .709251.5621 1.283745 1.25545 1.283745h29.45802l-5.8913 6.025034c-.49035.501423-.49035 1.314059 0 1.815482.24512.250585.5664.376142.88772.376142.32128 0 .64253-.125557.88768-.376142l8.03451-8.216382c.49034-.501423.49034-1.314059 0-1.815758z" fill="#fff" fill-rule="evenodd" transform="translate(-1157 -2)"/></svg>

<?xml version="1.0" encoding="UTF-8"?>
<svg width="35px" height="19px" viewBox="0 0 35 19" version="1.1" xmlns="http://www.w3.org/2000/svg" xmlns:xlink="http://www.w3.org/1999/xlink">
    <!-- Generator: Sketch 53.2 (72643) - https://sketchapp.com -->
    <title>arrow #2</title>
    <desc>Created with Sketch.</desc>
    <g id="HomePage" stroke="none" stroke-width="1" fill="none" fill-rule="evenodd">
        <g id="HomePage-Desktop-HD" transform="translate(-1280.000000, -728.000000)" fill="#FFFFFF">
            <g id="Section-2-:-Announcements" transform="translate(0.000000, 662.000000)">
                <g id="arrow" transform="translate(123.000000, 64.000000)">
                    <path d="M1191.63208,10.59196 L1183.59741,2.375578 C1183.10722,1.874684 1182.31217,1.874684 1181.8219,2.375578 C1181.33163,2.877024 1181.33163,3.690189 1181.8219,4.191336 L1187.71347,10.216094 L1158.25545,10.216094 C1157.5621,10.216094 1157,10.79114 1157,11.499839 C1157,12.20909 1157.5621,12.783584 1158.25545,12.783584 L1187.71347,12.783584 L1181.82217,18.808618 C1181.33182,19.310041 1181.33182,20.122677 1181.82217,20.6241 C1182.06729,20.874685 1182.38857,21.000242 1182.70989,21.000242 C1183.03117,21.000242 1183.35242,20.874685 1183.59757,20.6241 L1191.63208,12.407718 C1192.12242,11.906295 1192.12242,11.093659 1191.63208,10.59196 Z" id="arrow-#2"></path>
                </g>
            </g>
        </g>
    </g>
</svg>
